flaticon/design/unconstrained.svg

<svg xmlns="http://www.w3.org/2000/svg" width="32" height="32" viewBox="0 0 24 24">
    <path d="M0 8L2.398438 8 2.398438 2.398438 8 2.398438 8 0 0 0zM.800781.800781L7.199219.800781 7.199219 1.601562 1.601562 1.601562 1.601562 7.199219.800781 7.199219zM16 0L16 2.398438 21.601562 2.398438 21.601562 8 24 8 24 0zM23.199219 7.199219L22.398438 7.199219 22.398438 1.601562 16.800781 1.601562 16.800781.800781 23.199219.800781zM21.601562 21.601562L16 21.601562 16 24 24 24 24 16 21.601562 16zM22.398438 16.800781L23.199219 16.800781 23.199219 23.199219 16.800781 23.199219 16.800781 22.398438 22.398438 22.398438zM2.398438 16L0 16 0 24 8 24 8 21.601562 2.398438 21.601562zM7.199219 22.398438L7.199219 23.199219.800781 23.199219.800781 16.800781 1.601562 16.800781 1.601562 22.398438zM12 1.199219C10.015625 1.199219 8.398438 2.816406 8.398438 4.800781L8.398438 9.601562C8.398438 10.488281 8.734375 11.339844 9.324219 12 8.734375 12.660156 8.398438 13.511719 8.398438 14.398438L8.398438 19.199219C8.398438 21.183594 10.015625 22.800781 12 22.800781 13.984375 22.800781 15.601562 21.183594 15.601562 19.199219L15.601562 14.398438C15.601562 13.511719 15.265625 12.660156 14.675781 12 15.265625 11.339844 15.601562 10.488281 15.601562 9.601562L15.601562 4.800781C15.601562 2.816406 13.984375 1.199219 12 1.199219zM14.800781 9.601562C14.800781 10.398438 14.449219 11.164062 13.84375 11.699219L13.5 12 13.84375 12.300781C14.449219 12.835938 14.800781 13.601562 14.800781 14.398438L14.800781 19.199219C14.800781 20.742188 13.542969 22 12 22 10.457031 22 9.199219 20.742188 9.199219 19.199219L9.199219 14.398438C9.199219 13.601562 9.550781 12.835938 10.15625 12.300781L10.5 12 10.15625 11.699219C9.550781 11.164062 9.199219 10.398438 9.199219 9.601562L9.199219 4.800781C9.199219 3.257812 10.457031 2 12 2 13.542969 2 14.800781 3.257812 14.800781 4.800781zM14.800781 9.601562"/>
    <path d="M 12.398438 16 L 12.398438 8 C 12.398438 7.777344 12.222656 7.601562 12 7.601562 C 11.777344 7.601562 11.601562 7.777344 11.601562 8 L 11.601562 16 C 11.601562 16.222656 11.777344 16.398438 12 16.398438 C 12.222656 16.398438 12.398438 16.222656 12.398438 16 Z M 12.398438 16"/>
    <path d="M12 2.800781C10.898438 2.800781 10 3.695312 10 4.800781L10 9.601562C10 10.359375 10.132812 10.601562 10.488281 11.046875 10.625 11.222656 10.875 11.25 11.046875 11.113281 11.222656 10.976562 11.25 10.726562 11.113281 10.550781 10.855469 10.222656 10.800781 10.15625 10.800781 9.601562L10.800781 4.800781C10.800781 4.136719 11.339844 3.601562 12 3.601562 12.660156 3.601562 13.199219 4.136719 13.199219 4.800781L13.199219 9.601562C13.199219 10.15625 13.144531 10.222656 12.886719 10.550781 12.75 10.726562 12.777344 10.976562 12.953125 11.113281 13.023438 11.171875 13.113281 11.199219 13.199219 11.199219 13.316406 11.199219 13.433594 11.148438 13.511719 11.046875 13.867188 10.601562 14 10.359375 14 9.601562L14 4.800781C14 3.695312 13.101562 2.800781 12 2.800781zM12.953125 12.886719C12.777344 13.023438 12.75 13.273438 12.886719 13.449219 13.144531 13.777344 13.199219 13.84375 13.199219 14.398438L13.199219 19.199219C13.199219 19.863281 12.660156 20.398438 12 20.398438 11.339844 20.398438 10.800781 19.863281 10.800781 19.199219L10.800781 14.398438C10.800781 13.84375 10.855469 13.777344 11.113281 13.449219 11.25 13.273438 11.222656 13.023438 11.046875 12.886719 10.875 12.75 10.621094 12.777344 10.488281 12.953125 10.132812 13.398438 10 13.640625 10 14.398438L10 19.199219C10 20.304688 10.898438 21.199219 12 21.199219 13.101562 21.199219 14 20.304688 14 19.199219L14 14.398438C14 13.640625 13.867188 13.398438 13.511719 12.953125 13.375 12.777344 13.125 12.75 12.953125 12.886719zM12.953125 12.886719"/>
</svg>

<svg xmlns="http://www.w3.org/2000/svg" width="32" height="32" viewBox="0 0 24 24">
    <path d="M0 8h2.398V2.398H8V0H0zM.8.8h6.4v.802H1.601v5.597H.8zm0 0M16 0v2.398h5.602V8H24V0zm7.2 7.2h-.802V1.601h-5.597V.8h6.398zm0 0M21.602 21.602H16V24h8v-8h-2.398zm.796-4.801h.801v6.398h-6.398v-.8h5.597zm0 0M2.398 16H0v8h8v-2.398H2.398zM7.2 22.398v.801H.801v-6.398h.8v5.597zm0 0M12 1.2a3.608 3.608 0 0 0-3.602 3.6v4.802c0 .886.336 1.738.926 2.398a3.605 3.605 0 0 0-.926 2.398V19.2A3.608 3.608 0 0 0 12 22.801a3.608 3.608 0 0 0 3.602-3.602v-4.8c0-.887-.336-1.739-.926-2.399.59-.66.926-1.512.926-2.398V4.8A3.608 3.608 0 0 0 12 1.199zm2.8 8.402a2.81 2.81 0 0 1-.956 2.097L13.5 12l.344.3c.605.536.957 1.302.957 2.098V19.2C14.8 20.742 13.543 22 12 22a2.806 2.806 0 0 1-2.8-2.8v-4.802c0-.796.35-1.562.956-2.097L10.5 12l-.344-.3A2.81 2.81 0 0 1 9.2 9.601V4.8C9.2 3.258 10.457 2 12 2c1.543 0 2.8 1.258 2.8 2.8zm0 0"/>
    <path d="M12.398 16V8A.395.395 0 0 0 12 7.602a.395.395 0 0 0-.398.398v8c0 .223.175.398.398.398a.395.395 0 0 0 .398-.398zm0 0"/>
    <path d="M12 2.8c-1.102 0-2 .895-2 2v4.802c0 .757.133 1 .488 1.445a.394.394 0 0 0 .559.066.399.399 0 0 0 .066-.562c-.258-.328-.312-.395-.312-.95v-4.8a1.2 1.2 0 0 1 2.398 0v4.8c0 .555-.054.622-.312.95a.399.399 0 0 0 .312.648c.117 0 .235-.05.313-.152.355-.445.488-.688.488-1.445V4.8c0-1.106-.898-2-2-2zm0 0M12.953 12.887a.399.399 0 0 0-.066.562c.258.328.312.395.312.95v4.8a1.2 1.2 0 0 1-2.398 0v-4.8c0-.555.054-.622.312-.95a.399.399 0 0 0-.066-.562.394.394 0 0 0-.559.066c-.355.445-.488.688-.488 1.445V19.2c0 1.106.898 2 2 2 1.102 0 2-.894 2-2v-4.8c0-.758-.133-1-.488-1.446a.394.394 0 0 0-.559-.066zm0 0"/>
</svg>
